X:1
T:Title
%%score { ( 1 3 ) | ( 2 4 ) }
L:1/8
M:6/8
K:Ab
V:1 treble nm="Grand Piano"
V:3 treble 
V:2 bass 
V:4 bass 
V:1
 z3 z2[Q:1/4=87] [CE] | [CE][CF][CG] [CB]2 [CA] | [DG]2 d d2 d | dBG F2 [DE] | %4
[M:5/8] [CE]-[CE]- [CE]3 |[M:1/8] [CE] |[M:3/4] [CE][CF] [CG] [CB]2 [CA] | [DG]2 d d2 d | %8
 dG G c2 B |[M:5/8] A-A- A3 |[M:1/8] [ce] |[M:3/4] [ce][Bd] [Ac] [Bd]2 [Bd] | [Bd]>[Ac] [GB] c2 c | %13
 c>B A=D- [DG][DA] |[M:5/8] [DB]-[DB]- [DB]3 |[M:1/8] [DE] |[M:3/4] [CE][CF] [CG] [CB]2 [CA] | %17
 [DG]2 d d2 d | dG G c2 B |[M:13/8] [CA]-[CA]- [CA]3 z z z z z z z2 |[M:3/4] [DA]6 | [CA]6 |] %22
V:2
 z3 z2 [A,,E,] | [A,,E,][A,,E,][A,,E,] [A,,E,]2 [A,,E,] | [B,,E,]2 [E,G,D] [E,G,D]2 [E,G,E] | %3
 [E,B,E][E,G,E][E,B,E] [E,A,D]2 [B,,G,] |[M:5/8] [A,,A,]-[A,,A,]- [A,,A,]3 |[M:1/8] [A,,E,] | %6
[M:3/4] [A,,E,][A,,E,] [A,,E,] [A,,E,]2 [A,,E,] | [B,,E,]2 [E,G,D] [F,G,D]2 [F,G,E] | %8
 [E,G,E][E,B,D] [E,B,D] [E,A,E]2 [E,DE] |[M:5/8] [A,CE]-[A,CE]- [A,CE]3 |[M:1/8] [A,E] | %11
[M:3/4] [A,E][A,E] [A,E] [E,E]2 [E,E] | [E,E]>[E,E] [E,E][K:treble] [A,EA]2 [A,E] | %13
 [F,A,=D]>[F,A,D] .[F,A,D]2 G,[B,,F,] |[M:5/8] [E,G,]-[E,G,]- [E,G,]3 |[M:1/8] [B,,G,] | %16
[M:3/4] [A,,E,][A,,E,] [A,,E,] [A,,E,]2 [A,,E,] | [B,,E,]2 [E,G,D] [E,G,D]2 [E,G,E] | %18
 [E,G,E][E,B,D] [E,B,D] [E,A,E]2 [E,G,D] |[M:13/8] [A,,A,]-[A,,A,]- [A,,A,]3 z z z z z z z2 | %20
[M:3/4] [D,F,]6 | [A,,E,]6 |] %22
V:3
 x6 | x6 | x6 | x6 |[M:5/8] x5 |[M:1/8] x |[M:3/4] x6 | x6 | x6 |[M:5/8] x5 |[M:1/8] x | %11
[M:3/4] x6 | x6 | z2 z [A,F] z2 |[M:5/8] x5 |[M:1/8] x |[M:3/4] x6 | x6 | x6 |[M:13/8] x13 | %20
[M:3/4] x6 | x6 |] %22
V:4
 x6 | x6 | x6 | x6 |[M:5/8] x5 |[M:1/8] x |[M:3/4] x6 | x6 | x6 |[M:5/8] x5 |[M:1/8] x | %11
[M:3/4] x6 | x3[K:treble] x3 | z2 z .B,,3 |[M:5/8] x5 |[M:1/8] x |[M:3/4] x6 | x6 | x6 | %19
[M:13/8] x13 |[M:3/4] x6 | x6 |] %22

